img/elem/terre.svg

<?xml version="1.0" encoding="UTF-8" standalone="no"?>
<svg
   xmlns:dc="http://purl.org/dc/elements/1.1/"
   xmlns:cc="http://creativecommons.org/ns#"
   xmlns:rdf="http://www.w3.org/1999/02/22-rdf-syntax-ns#"
   xmlns:svg="http://www.w3.org/2000/svg"
   xmlns="http://www.w3.org/2000/svg"
   xmlns:sodipodi="http://sodipodi.sourceforge.net/DTD/sodipodi-0.dtd"
   xmlns:inkscape="http://www.inkscape.org/namespaces/inkscape"
   version="1.1"
   x="0px"
   y="0px"
   viewBox="0 0 52.689874 46.154999"
   enable-background="new 0 0 52.689 46.155"
   xml:space="preserve"
   id="svg2"
   inkscape:version="0.48.4 r9939"
   width="100%"
   height="100%"
   sodipodi:docname="terre.svg"
   style="fill:#000000"><metadata
     id="metadata16"><rdf:RDF><cc:Work
         rdf:about=""><dc:format>image/svg+xml</dc:format><dc:type
           rdf:resource="http://purl.org/dc/dcmitype/StillImage" /></cc:Work></rdf:RDF></metadata><defs
     id="defs14"><foreignObject
       id="foreignObject6"
       height="1"
       width="1"
       y="0"
       x="0"
       requiredExtensions="http://ns.adobe.com/AdobeIllustrator/10.0/" /></defs><sodipodi:namedview
     pagecolor="#ffffff"
     bordercolor="#666666"
     borderopacity="1"
     objecttolerance="10"
     gridtolerance="10"
     guidetolerance="10"
     inkscape:pageopacity="0"
     inkscape:pageshadow="2"
     inkscape:window-width="1301"
     inkscape:window-height="744"
     id="namedview12"
     showgrid="false"
     fit-margin-top="0"
     fit-margin-left="0"
     fit-margin-right="0"
     fit-margin-bottom="0"
     inkscape:zoom="5.1132056"
     inkscape:cx="-11.595599"
     inkscape:cy="23.077498"
     inkscape:window-x="65"
     inkscape:window-y="24"
     inkscape:window-maximized="1"
     inkscape:current-layer="svg2" /><path
     d="m 52.425875,2.945 c 0.352,-0.607 0.352,-1.355 0,-1.961 C 52.077875,0.375 51.427875,0 50.727875,0 H 1.9628748 c -0.701,0 -1.34999995,0.375 -1.69999995,0.983 -0.35,0.606 -0.351,1.354 0,1.961 L 13.668875,26.163 H 1.9628748 c -1.08399995,0.001 -1.96199995103,0.879 -1.96199995103,1.963 0,1.084 0.87800000103,1.962 1.96199995103,1.962 H 15.935875 l 8.71,15.086 c 0.35,0.607 0.998,0.981 1.699,0.981 0.7,0 1.348,-0.374 1.699,-0.981 l 8.711,-15.086 h 13.973 c 1.083,0 1.962,-0.878 1.962,-1.962 0,-1.084 -0.879,-1.962 -1.962,-1.962 h -11.707 l 13.405,-23.219 z m -31.959,27.143 h 11.755 l -5.877,10.181 -5.878,-10.181 z m 26.861,-26.161 -12.839,22.237 h -16.288 L 5.3618748,3.926 47.327875,3.927 z"
     id="path10"
     inkscape:connector-curvature="0"
     style="fill:#507101;fill-opacity:1" /></svg>

<?xml version="1.0" encoding="UTF-8" standalone="no"?>
<svg
   xmlns:i="http://ns.adobe.com/AdobeIllustrator/10.0/"
   xmlns:dc="http://purl.org/dc/elements/1.1/"
   xmlns:cc="http://creativecommons.org/ns#"
   xmlns:rdf="http://www.w3.org/1999/02/22-rdf-syntax-ns#"
   xmlns:svg="http://www.w3.org/2000/svg"
   xmlns="http://www.w3.org/2000/svg"
   xmlns:sodipodi="http://sodipodi.sourceforge.net/DTD/sodipodi-0.dtd"
   xmlns:inkscape="http://www.inkscape.org/namespaces/inkscape"
   version="1.1"
   x="0px"
   y="0px"
   viewBox="0 0 52.689874 46.154999"
   enable-background="new 0 0 52.689 46.155"
   xml:space="preserve"
   id="svg2"
   inkscape:version="0.48.4 r9939"
   width="100%"
   height="100%"
   sodipodi:docname="terre.svg"
   style="fill:#000000"><metadata
     id="metadata16"><rdf:RDF><cc:Work
         rdf:about=""><dc:format>image/svg+xml</dc:format><dc:type
           rdf:resource="http://purl.org/dc/dcmitype/StillImage" /></cc:Work></rdf:RDF></metadata><defs
     id="defs14" /><sodipodi:namedview
     pagecolor="#ffffff"
     bordercolor="#666666"
     borderopacity="1"
     objecttolerance="10"
     gridtolerance="10"
     guidetolerance="10"
     inkscape:pageopacity="0"
     inkscape:pageshadow="2"
     inkscape:window-width="1301"
     inkscape:window-height="744"
     id="namedview12"
     showgrid="false"
     fit-margin-top="0"
     fit-margin-left="0"
     fit-margin-right="0"
     fit-margin-bottom="0"
     inkscape:zoom="5.1132056"
     inkscape:cx="-11.595599"
     inkscape:cy="23.077498"
     inkscape:window-x="65"
     inkscape:window-y="24"
     inkscape:window-maximized="1"
     inkscape:current-layer="svg2" /><switch
     id="switch4"
     transform="translate(8.7484897e-4,0)"
     style="fill:#507101;fill-opacity:1"><foreignObject
       requiredExtensions="http://ns.adobe.com/AdobeIllustrator/10.0/"
       x="0"
       y="0"
       width="1"
       height="1"
       id="foreignObject6" /><g
       i:extraneous="self"
       id="g8"
       style="fill:#507101;fill-opacity:1"><path
         d="m 52.425,2.945 c 0.352,-0.607 0.352,-1.355 0,-1.961 C 52.077,0.375 51.427,0 50.727,0 H 1.962 c -0.701,0 -1.35,0.375 -1.7,0.983 -0.35,0.606 -0.351,1.354 0,1.961 L 13.668,26.163 H 1.962 C 0.878,26.164 0,27.042 0,28.126 c 0,1.084 0.878,1.962 1.962,1.962 h 13.973 l 8.71,15.086 c 0.35,0.607 0.998,0.981 1.699,0.981 0.7,0 1.348,-0.374 1.699,-0.981 l 8.711,-15.086 h 13.973 c 1.083,0 1.962,-0.878 1.962,-1.962 0,-1.084 -0.879,-1.962 -1.962,-1.962 H 39.02 L 52.425,2.945 z M 20.466,30.088 H 32.221 L 26.344,40.269 20.466,30.088 z M 47.327,3.927 34.488,26.164 H 18.2 L 5.361,3.926 47.327,3.927 z"
         id="path10"
         inkscape:connector-curvature="0"
         style="fill:#507101;fill-opacity:1" /></g></switch></svg>
